NEWLRPROJECT/xmp-style-lab/tests/samples/sample.lrtemplate
return {
    id = "123",
    internalName = "Sample",
    title = "Sample",
    type = "Develop",
    settings = {
        ProcessVersion = "11.0",
        Contrast2012 = 25,
        Highlights2012 = -10
    }
}


