NEWLRPROJECT/xmp-style-lab/tests/samples/sample.xmp
<x:xmpmeta xmlns:x="adobe:ns:meta/">
  <rdf:RDF xmlns:rdf="http://www.w3.org/1999/02/22-rdf-syntax-ns#">
    <rdf:Description xmlns:crs="http://ns.adobe.com/camera-raw-settings/1.0/"
      crs:ProcessVersion="11.0"
      crs:Contrast2012="+25"
      crs:Highlights2012="-10"
      crs:ToneCurvePV2012="0, 0, 255, 255">
    </rdf:Description>
  </rdf:RDF>
</x:xmpmeta>


